repository/2/粉/image.svg

<?xml version="1.0" encoding="UTF-8" standalone="no"?>
<!-- Uploaded to: SVG Repo, www.svgrepo.com, Generator: SVG Repo Mixer Tools -->

<svg
   version="1.1"
   id="Layer_1"
   viewBox="0 0 512 512"
   xml:space="preserve"
   sodipodi:docname="image.svg"
   inkscape:version="1.3.1 (9b9bdc1480, 2023-11-25, custom)"
   xmlns:inkscape="http://www.inkscape.org/namespaces/inkscape"
   xmlns:sodipodi="http://sodipodi.sourceforge.net/DTD/sodipodi-0.dtd"
   xmlns="http://www.w3.org/2000/svg"
   xmlns:svg="http://www.w3.org/2000/svg"><sodipodi:namedview
   id="namedview1"
   pagecolor="#ffffff"
   bordercolor="#000000"
   borderopacity="0.25"
   inkscape:showpageshadow="2"
   inkscape:pageopacity="0.0"
   inkscape:pagecheckerboard="0"
   inkscape:deskcolor="#d1d1d1"
   inkscape:zoom="2.1953125"
   inkscape:cx="255.77224"
   inkscape:cy="256"
   inkscape:window-width="2560"
   inkscape:window-height="1324"
   inkscape:window-x="0"
   inkscape:window-y="0"
   inkscape:window-maximized="1"
   inkscape:current-layer="Layer_1" /><defs
   id="defs6" />
<path
   style="fill:#ffaaee"
   d="M255.999,12.148c0,0,458.428,491.567,0,491.567S255.999,12.148,255.999,12.148z"
   id="path1" />
<path
   style="fill:#ff2ad4"
   d="M 319.21,85.352 C 283.99,40.175 256,10.148 256,10.148 c 0,0 -458.428,491.567 0,491.567 23.448,0 44.376,-1.35 63.21,-3.79 -258.429,-33.487 -100.057,-284.231 0,-412.573 z"
   id="path2" />
<path
   d="M256,512c-109.8,0-177.787-28.322-202.073-84.177c-14.637-33.662-13.073-77.083,4.643-129.059  c13.848-40.628,37.6-86.757,70.597-137.104C185.08,76.339,249.298,7.186,249.941,6.498L256,0l6.059,6.498  c0.643,0.688,64.859,69.842,120.775,155.162c32.997,50.348,56.749,96.476,70.597,137.104c17.716,51.976,19.278,95.397,4.643,129.059  C433.787,483.678,365.799,512,256,512z M256,24.469C238.81,43.643,188.09,101.942,142.907,170.92  C92.834,247.361,39.387,352.837,69.125,421.22c21.414,49.242,84.288,74.21,186.875,74.21s165.462-24.968,186.875-74.21  c29.738-68.383-23.709-173.859-73.781-250.301C323.908,101.942,273.189,43.645,256,24.469z"
   id="path3" />
<g
   id="g6">
	<path
   style="fill:#FFFFFF;"
   d="M150.603,461.668c-41.521-17.097-65.015-50.362-67.94-96.196   c-2.153-33.738,7.625-62.137,8.043-63.329l15.64,5.473l-7.82-2.737l7.822,2.728c-0.092,0.264-9.174,26.823-7.117,57.284   c2.658,39.383,22.065,66.788,57.681,81.453L150.603,461.668z"
   id="path4" />
	<rect
   x="247.65"
   y="152.993"
   style="fill:#FFFFFF;"
   width="22.093"
   height="16.57"
   id="rect4" />
	<rect
   x="275.266"
   y="186.133"
   style="fill:#FFFFFF;"
   width="22.093"
   height="16.57"
   id="rect5" />
	<rect
   x="286.312"
   y="152.993"
   style="fill:#FFFFFF;"
   width="22.093"
   height="16.57"
   id="rect6" />
</g>
</svg>

<?xml version="1.0" encoding="UTF-8" standalone="no"?>
<!-- Uploaded to: SVG Repo, www.svgrepo.com, Generator: SVG Repo Mixer Tools -->

<svg
   version="1.1"
   id="Layer_1"
   viewBox="0 0 512 512"
   xml:space="preserve"
   width="100%"
   height="100%"
   xmlns="http://www.w3.org/2000/svg"
   xmlns:svg="http://www.w3.org/2000/svg"><defs
   id="defs6" />
<path
   style="fill:#ffaaee"
   d="m 255.999,12.148 c 0,0 458.428,491.567 0,491.567 -458.428,0 0,-491.567 0,-491.567 z"
   id="path1" />
<path
   style="fill:#ff2ad4"
   d="M 319.21,85.352 C 283.99,40.175 256,10.148 256,10.148 c 0,0 -458.428,491.567 0,491.567 23.448,0 44.376,-1.35 63.21,-3.79 -258.429,-33.487 -100.057,-284.231 0,-412.573 z"
   id="path2" />
<path
   d="M 256,512 C 146.2,512 78.213,483.678 53.927,427.823 39.29,394.161 40.854,350.74 58.57,298.764 72.418,258.136 96.17,212.007 129.167,161.66 185.08,76.339 249.298,7.186 249.941,6.498 L 256,0 l 6.059,6.498 c 0.643,0.688 64.859,69.842 120.775,155.162 32.997,50.348 56.749,96.476 70.597,137.104 17.716,51.976 19.278,95.397 4.643,129.059 C 433.787,483.678 365.799,512 256,512 Z m 0,-487.531 c -17.19,19.174 -67.91,77.473 -113.093,146.451 -50.073,76.441 -103.52,181.917 -73.782,250.3 21.414,49.242 84.288,74.21 186.875,74.21 102.587,0 165.462,-24.968 186.875,-74.21 C 472.613,352.837 419.166,247.361 369.094,170.919 323.908,101.942 273.189,43.645 256,24.469 Z"
   id="path3" />
<g
   id="g6">
	<path
   style="fill:#ffffff"
   d="m 150.603,461.668 c -41.521,-17.097 -65.015,-50.362 -67.94,-96.196 -2.153,-33.738 7.625,-62.137 8.043,-63.329 l 15.64,5.473 -7.82,-2.737 7.822,2.728 c -0.092,0.264 -9.174,26.823 -7.117,57.284 2.658,39.383 22.065,66.788 57.681,81.453 z"
   id="path4" />
	<rect
   x="247.64999"
   y="152.993"
   style="fill:#ffffff"
   width="22.093"
   height="16.57"
   id="rect4" />
	<rect
   x="275.26599"
   y="186.133"
   style="fill:#ffffff"
   width="22.093"
   height="16.57"
   id="rect5" />
	<rect
   x="286.31201"
   y="152.993"
   style="fill:#ffffff"
   width="22.093"
   height="16.57"
   id="rect6" />
</g>
</svg>
